X: 511
T: Maggie and Jock
C: Trad. arr. Bert Murray
R: shottish, strathspey
B: Bert Murray's "Bon Accord Collection" 1999 p.51
%
Z: 2011 John Chambers <jc:trillian.mit.edu>
M: C
L: 1/8
K: C
|: vE<GG2 E<cc2 | B>AA>^G A4 | (D<F)F2 F<BB2 | A>GG>^F G4 |
    E<GG2 E<cc2 | B>AA>^G A4 |  B2B>A G>FE>D | C2c2 c2"_Fine"z2 :|
|: vG>EC>A G>EG>c | B2B2 B4 | (B>G)F>G (3BAG (3FED | C2c2 c4 :|[K:G]
|: vD>GB>D E>Gc>E | (3DGB (3dBG D2z2 | (3vDFA (3dcA F2z2 | (3vGBd (3edB G2z2 |
   vD>GB>D E>Gc>E | (3DGB (3dBG D2z2 | (3vDFA (d>^c) =c>EF>D | G2G2 "D.C. al Fine"G2z2 :|

%%sep 2 1 500

